src/assets/images/about-icon-light.svg

<?xml version="1.0" encoding="UTF-8" standalone="no"?>
<svg
   height="24"
   width="24"
   fill="currentColor"
   version="1.1"
   id="svg4"
   sodipodi:docname="about-icon-white.svg"
   inkscape:version="1.2.1 (9c6d41e410, 2022-07-14)"
   xmlns:inkscape="http://www.inkscape.org/namespaces/inkscape"
   xmlns:sodipodi="http://sodipodi.sourceforge.net/DTD/sodipodi-0.dtd"
   xmlns="http://www.w3.org/2000/svg"
   xmlns:svg="http://www.w3.org/2000/svg">
  <defs
     id="defs8" />
  <sodipodi:namedview
     id="namedview6"
     pagecolor="#ffffff"
     bordercolor="#666666"
     borderopacity="1.0"
     inkscape:showpageshadow="2"
     inkscape:pageopacity="0"
     inkscape:pagecheckerboard="0"
     inkscape:deskcolor="#d1d1d1"
     showgrid="false"
     inkscape:zoom="22.922045"
     inkscape:cx="1.2651576"
     inkscape:cy="10.383018"
     inkscape:window-width="1888"
     inkscape:window-height="1060"
     inkscape:window-x="32"
     inkscape:window-y="0"
     inkscape:window-maximized="1"
     inkscape:current-layer="svg4" />
  <path
     d="m 11,17 h 2 V 11 H 11 Z M 12,9 C 12.283333,9 12.521,8.904 12.713,8.712 12.904333,8.5206667 13,8.2833333 13,8 13,7.7166667 12.904333,7.479 12.713,7.287 12.521,7.0956667 12.283333,7 12,7 11.716667,7 11.479333,7.0956667 11.288,7.287 11.096,7.479 11,7.7166667 11,8 11,8.2833333 11.096,8.5206667 11.288,8.712 11.479333,8.904 11.716667,9 12,9 Z"
     id="path2"
     sodipodi:nodetypes="cccccssscssscs"
     style="fill:#ffffff" />
  <path
     id="path387"
     d="M 12,2 C 10.616668,2 9.316275,2.2624432 8.099609,2.7871094 6.882944,3.3124421 5.82578,4.0257822 4.925781,4.9257812 4.025782,5.8257804 3.311776,6.8829439 2.787109,8.0996094 2.261777,9.3162749 2,10.616668 2,12 c 0,1.383332 0.261777,2.683725 0.787109,3.900391 0.524667,1.216665 1.238673,2.273829 2.138672,3.173828 0.899999,0.899999 1.957163,1.614005 3.173828,2.138672 C 9.316275,21.738223 10.616668,22 12,22 c 1.383332,0 2.683725,-0.261777 3.900391,-0.787109 1.216665,-0.524667 2.273829,-1.238673 3.173828,-2.138672 0.899999,-0.899999 1.614005,-1.957163 2.138672,-3.173828 C 21.738223,14.683725 22,13.383332 22,12 22,10.616668 21.738223,9.3162749 21.212891,8.0996094 20.688224,6.8829439 19.974218,5.8257804 19.074219,4.9257812 18.17422,4.0257822 17.117056,3.3124421 15.900391,2.7871094 14.683725,2.2624432 13.383332,2 12,2 Z m 0,2 c 2.233331,0 4.125783,0.7742203 5.675781,2.3242188 C 19.22578,7.8742172 20,9.7666689 20,12 20,14.233331 19.22578,16.125783 17.675781,17.675781 16.125783,19.22578 14.233331,20 12,20 9.766669,20 7.874217,19.22578 6.324219,17.675781 4.77422,16.125783 4,14.233331 4,12 4,9.7666689 4.77422,7.8742172 6.324219,6.3242188 7.874217,4.7742203 9.766669,4 12,4 Z"
     style="fill:#ffffff" />
</svg>

<svg xmlns="http://www.w3.org/2000/svg" viewBox="0 0 24 24"><path fill="#fff" d="M11 17h2v-6h-2Zm1-8a.97.97 0 0 0 .713-.288A.97.97 0 0 0 13 8a.97.97 0 0 0-.287-.713A.97.97 0 0 0 12 7a.97.97 0 0 0-.712.287A.97.97 0 0 0 11 8q0 .424.288.712A.97.97 0 0 0 12 9"/><path fill="#fff" d="M12 2a9.7 9.7 0 0 0-3.9.787 10.1 10.1 0 0 0-3.174 2.139Q3.576 6.276 2.787 8.1A9.7 9.7 0 0 0 2 12q0 2.075.787 3.9a10.1 10.1 0 0 0 2.139 3.174q1.35 1.35 3.174 2.139A9.7 9.7 0 0 0 12 22a9.7 9.7 0 0 0 3.9-.787 10.1 10.1 0 0 0 3.174-2.139q1.35-1.35 2.139-3.174A9.7 9.7 0 0 0 22 12a9.7 9.7 0 0 0-.787-3.9 10.1 10.1 0 0 0-2.139-3.174q-1.35-1.35-3.174-2.139A9.7 9.7 0 0 0 12 2m0 2q3.35 0 5.676 2.324Q20 8.65 20 12t-2.324 5.676Q15.35 20 12 20t-5.676-2.324Q4 15.35 4 12t2.324-5.676Q8.65 4 12 4"/></svg>
